app/client/src/assets/icons/blueprintjs/16px/known-vehicle.svg

<?xml version="1.0" encoding="utf-8"?>
<!-- Generator: Adobe Illustrator 18.0.0, SVG Export Plug-In . SVG Version: 6.00 Build 0)  -->
<svg version="1.1" id="Layer_1" xmlns="http://www.w3.org/2000/svg" xmlns:xlink="http://www.w3.org/1999/xlink" x="0px" y="0px"
	 viewBox="0 0 16 16" enable-background="new 0 0 16 16" xml:space="preserve">
<g id="known_vehicle">
	<g>
		<path fill-rule="evenodd" clip-rule="evenodd" d="M15,2.999939c-0.276123,0-0.526123,0.1119385-0.7070923,0.2929077L12,5.5857544
			l-1.2929077-1.2929077C10.526123,4.1118774,10.276123,3.999939,10,3.999939c-0.5523071,0-1,0.4476929-1,1
			c0,0.276123,0.1119385,0.526123,0.2929077,0.7071533l2,2C11.473877,7.8880005,11.723877,7.999939,12,7.999939
			s0.526123-0.1119385,0.7070923-0.2928467l3-3C15.8880615,4.526062,16,4.276062,16,3.999939
			C16,3.4476318,15.5523071,2.999939,15,2.999939z M14.1213379,9.1212769l-0.0076294-0.0076294
			c-0.3123169,0.309021-0.6906128,0.5522461-1.1138916,0.7026978v0.1834106h-0.9979248
			c-0.0006714,0-0.0012207,0.0001831-0.0018921,0.0001831c-0.0006104,0-0.0012207-0.0001831-0.0018311-0.0001831h-0.998291
			V9.8162231c-0.4234009-0.1505127-0.8002319-0.3948975-1.1115112-0.7045898L9.8786621,9.1212769l-2-2l0.0110474-0.0110474
			c-0.31073-0.3099976-0.5552979-0.6862793-0.7061157-1.1105957H3.0001221c-0.1760254,0-0.0606079-0.8240356,0-1l0.729126-1.6304932
			c0.0609131-0.1762085,0.0949097-0.3695679,0.270813-0.3695679h3.7788696C8.3280029,2.3901978,9.1151733,1.999939,10,1.999939
			c0.7679443,0,1.4609985,0.2932739,1.9873047,0.7700806l0.8439941-0.8439941
			c-0.2387085-0.2445068-0.5244751-0.4421997-0.7944336-0.5244141c0,0-1.3168945-0.4016113-4.0368042-0.4016113
			C5.2800293,1,3.9630737,1.4016113,3.9630737,1.4016113c-0.5078125,0.1549072-1.078064,0.7116089-1.2677002,1.2375488
			L1.932312,4.7561035H0.8799438C0.3960571,4.7561035,0,5.1785889,0,5.6949463c0,0.5164795,0.3960571,0.9390259,0.8799438,0.9390259
			h0.3754272l-0.255188,0.3657227c-0.0339355,0.6849976,0,1.4365234,0,2.000061v5.0001221
			c0,0.6572266,0.3840942,1.000061,0.999939,1.000061c0.6162109,0,1-0.3428345,1-1.000061v-1h9.9996948v1
			c0,0.6572266,0.3839722,1.000061,1,1.000061c0.6159668,0,0.999939-0.3428345,0.999939-1.000061V8.9997559
			c0-0.2207642-0.0015869-0.4832764-0.0029907-0.7539673L14.1213379,9.1212769z M5.000061,9.9997559h-1.999939v-2.000061h1.999939
			V9.9997559z"/>
	</g>
</g>
</svg>

<svg xmlns="http://www.w3.org/2000/svg" xml:space="preserve" viewBox="0 0 16 16"><path fill-rule="evenodd" d="M15 3a.997.997 0 0 0-.707.293L12 5.586l-1.293-1.293a1 1 0 1 0-1.414 1.414l2 2a.997.997 0 0 0 1.414 0l3-3A1 1 0 0 0 15 3zm-.879 6.121-.007-.007c-.313.309-.69.552-1.114.702V10h-2v-.184c-.424-.15-.8-.395-1.112-.704l-.01.01-2-2 .012-.012A2.978 2.978 0 0 1 7.184 6H3c-.176 0-.06-.824 0-1l.73-1.63C3.79 3.192 3.823 3 4 3H7.78C8.328 2.39 9.115 2 10 2c.768 0 1.461.293 1.987.77l.844-.844c-.238-.244-.524-.442-.794-.524C12.037 1.402 10.72 1 8 1c-2.72 0-4.037.402-4.037.402-.508.155-1.078.711-1.268 1.237l-.763 2.117H.88c-.484 0-.88.423-.88.939s.396.939.88.939h.375L1 7c-.034.685 0 1.436 0 2v5c0 .657.384 1 1 1s1-.343 1-1v-1h10v1c0 .657.384 1 1 1s1-.343 1-1V9l-.003-.754-.876.875zM5.001 10H3V8h2v2z" clip-rule="evenodd"/></svg>
